svg/solid/bxs-city.svg

<svg xmlns="http://www.w3.org/2000/svg" width="24" height="24"><path d="M21 6h-4V3a1 1 0 0 0-1-1H8a1 1 0 0 0-1 1v7H3a1 1 0 0 0-1 1v8a1 1 0 0 0 1 1h18a1 1 0 0 0 1-1V7a1 1 0 0 0-1-1zM6 18H4v-2h2v2zm0-4H4v-2h2v2zm5 4H9v-2h2v2zm0-4H9v-2h2v2zm0-4H9V8h2v2zm0-4H9V4h2v2zm4 12h-2v-2h2v2zm0-4h-2v-2h2v2zm0-4h-2V8h2v2zm0-4h-2V4h2v2zm5 12h-2v-2h2v2zm0-4h-2v-2h2v2zm0-4h-2V8h2v2z"/></svg>

<svg xmlns="http://www.w3.org/2000/svg" width="24" height="24" viewBox="0 0 24 24"><path d="M21,6h-4V3c0-0.553-0.447-1-1-1H8C7.447,2,7,2.447,7,3v7H3c-0.553,0-1,0.447-1,1v8c0,0.553,0.447,1,1,1h4h5h5h4 c0.553,0,1-0.447,1-1V7C22,6.447,21.553,6,21,6z M6,18H4v-2h2V18z M6,14H4v-2h2V14z M11,18H9v-2h2V18z M11,14H9v-2h2V14z M11,10H9 V8h2V10z M11,6H9V4h2V6z M15,18h-2v-2h2V18z M15,14h-2v-2h2V14z M15,10h-2V8h2V10z M15,6h-2V4h2V6z M20,18h-2v-2h2V18z M20,14h-2 v-2h2V14z M20,10h-2V8h2V10z"/></svg>
